public/2024-summer/clouds_sp.svg

<svg width="400" height="1600" viewBox="0 0 400 1600" fill="none" xmlns="http://www.w3.org/2000/svg">
<g clip-path="url(#clip0_99_146)">
<path d="M30.2649 731.711C30.2649 761.141 -1.35836 785 -40.3676 785C-79.3768 785 -111 761.141 -111 731.711C-111 702.28 -79.3768 678.421 -40.3676 678.421C-1.35836 678.421 30.2649 702.28 30.2649 731.711Z" fill="#F7E8D2"/>
<path d="M57.8865 691.053C57.8865 713.725 37.0399 732.105 11.3243 732.105C-14.3913 732.105 -35.2378 713.725 -35.2378 691.053C-35.2378 668.38 -14.3913 650 11.3243 650C37.0399 650 57.8865 668.38 57.8865 691.053Z" fill="#F7E8D2"/>
<path d="M110.762 753.421C110.762 770.862 87.0889 785 57.8865 785C28.6841 785 5.01081 770.862 5.01081 753.421C5.01081 735.98 28.6841 721.842 57.8865 721.842C87.0889 721.842 110.762 735.98 110.762 753.421Z" fill="#F7E8D2"/>
<path d="M119.443 715.921C119.443 736.632 101.423 753.421 79.1946 753.421C56.9659 753.421 38.9459 736.632 38.9459 715.921C38.9459 695.21 56.9659 678.421 79.1946 678.421C101.423 678.421 119.443 695.21 119.443 715.921Z" fill="#F7E8D2"/>
<path d="M181 745.132C181 759.302 161.92 770.789 138.384 770.789C114.847 770.789 95.7676 759.302 95.7676 745.132C95.7676 730.961 114.847 719.474 138.384 719.474C161.92 719.474 181 730.961 181 745.132Z" fill="#F7E8D2"/>
<path d="M180.828 741.549C179.559 757.413 154.405 768.342 124.644 765.961C94.8826 763.58 71.7847 748.789 73.0532 732.925C74.3217 717.061 99.4762 706.131 129.237 708.513C158.998 710.894 182.096 725.685 180.828 741.549Z" fill="#F7E8D2"/>
<path d="M341.749 1035.71C341.749 1065.14 310.017 1089 270.874 1089C231.732 1089 200 1065.14 200 1035.71C200 1006.28 231.732 982.421 270.874 982.421C310.017 982.421 341.749 1006.28 341.749 1035.71Z" fill="#E7E7E7"/>
<path d="M369.465 995.053C369.465 1017.73 348.547 1036.11 322.743 1036.11C296.94 1036.11 276.022 1017.73 276.022 995.053C276.022 972.38 296.94 954 322.743 954C348.547 954 369.465 972.38 369.465 995.053Z" fill="#E7E7E7"/>
<path d="M422.522 1057.42C422.522 1074.86 398.767 1089 369.465 1089C340.162 1089 316.408 1074.86 316.408 1057.42C316.408 1039.98 340.162 1025.84 369.465 1025.84C398.767 1025.84 422.522 1039.98 422.522 1057.42Z" fill="#E7E7E7"/>
<path d="M431.232 1019.92C431.232 1040.63 413.151 1057.42 390.846 1057.42C368.541 1057.42 350.459 1040.63 350.459 1019.92C350.459 999.21 368.541 982.421 390.846 982.421C413.151 982.421 431.232 999.21 431.232 1019.92Z" fill="#E7E7E7"/>
<path d="M493 1049.13C493 1063.3 473.855 1074.79 450.238 1074.79C426.621 1074.79 407.476 1063.3 407.476 1049.13C407.476 1034.96 426.621 1023.47 450.238 1023.47C473.855 1023.47 493 1034.96 493 1049.13Z" fill="#E7E7E7"/>
<path d="M492.827 1045.55C491.555 1061.41 466.314 1072.34 436.451 1069.96C406.588 1067.58 383.411 1052.79 384.684 1036.93C385.956 1021.06 411.197 1010.13 441.06 1012.51C470.923 1014.89 494.1 1029.69 492.827 1045.55Z" fill="#E7E7E7"/>
<path d="M85.3159 1519.9C85.3159 1535.38 63.1916 1547.94 35.9 1547.94C8.60836 1547.94 -13.5159 1535.38 -13.5159 1519.9C-13.5159 1504.42 8.60836 1491.86 35.9 1491.86C63.1916 1491.86 85.3159 1504.42 85.3159 1519.9Z" fill="#F7E8D2"/>
<path d="M302.746 1547.94C302.746 1562.33 285.931 1574 265.19 1574C244.448 1574 227.634 1562.33 227.634 1547.94C227.634 1533.54 244.448 1521.88 265.19 1521.88C285.931 1521.88 302.746 1533.54 302.746 1547.94Z" fill="#F7E8D2"/>
<path d="M332 1528.98C332 1539.45 318.725 1547.94 302.35 1547.94C285.975 1547.94 272.701 1539.45 272.701 1528.98C272.701 1518.51 285.975 1510.03 302.35 1510.03C318.725 1510.03 332 1518.51 332 1528.98Z" fill="#F7E8D2"/>
<path d="M26.0168 1498.97C26.0168 1525.58 -0.178288 1547.15 -32.4916 1547.15C-64.8049 1547.15 -91 1525.58 -91 1498.97C-91 1472.36 -64.8049 1450.8 -32.4916 1450.8C-0.178288 1450.8 26.0168 1472.36 26.0168 1498.97Z" fill="#F7E8D2"/>
<path d="M65.5495 1474.88C65.5495 1496.91 44.8412 1514.77 19.2963 1514.77C-6.24872 1514.77 -26.957 1496.91 -26.957 1474.88C-26.957 1452.86 -6.24872 1435 19.2963 1435C44.8412 1435 65.5495 1452.86 65.5495 1474.88Z" fill="#F7E8D2"/>
<path d="M123.267 1487.52C123.267 1502.57 103.621 1514.77 79.386 1514.77C55.151 1514.77 35.5047 1502.57 35.5047 1487.52C35.5047 1472.47 55.151 1460.27 79.386 1460.27C103.621 1460.27 123.267 1472.47 123.267 1487.52Z" fill="#F7E8D2"/>
<path d="M157.265 1513.98C157.265 1527.94 137.088 1539.25 112.198 1539.25C87.3081 1539.25 67.1308 1527.94 67.1308 1513.98C67.1308 1500.02 87.3081 1488.7 112.198 1488.7C137.088 1488.7 157.265 1500.02 157.265 1513.98Z" fill="#F7E8D2"/>
<path d="M365.265 362.711C365.265 392.141 333.642 416 294.632 416C255.623 416 224 392.141 224 362.711C224 333.28 255.623 309.421 294.632 309.421C333.642 309.421 365.265 333.28 365.265 362.711Z" fill="#F7E8D2"/>
<path d="M392.886 322.053C392.886 344.725 372.04 363.105 346.324 363.105C320.609 363.105 299.762 344.725 299.762 322.053C299.762 299.38 320.609 281 346.324 281C372.04 281 392.886 299.38 392.886 322.053Z" fill="#F7E8D2"/>
<path d="M445.762 384.421C445.762 401.862 422.089 416 392.886 416C363.684 416 340.011 401.862 340.011 384.421C340.011 366.98 363.684 352.842 392.886 352.842C422.089 352.842 445.762 366.98 445.762 384.421Z" fill="#F7E8D2"/>
<path d="M454.443 346.921C454.443 367.632 436.423 384.421 414.195 384.421C391.966 384.421 373.946 367.632 373.946 346.921C373.946 326.21 391.966 309.421 414.195 309.421C436.423 309.421 454.443 326.21 454.443 346.921Z" fill="#F7E8D2"/>
<path d="M516 376.132C516 390.302 496.92 401.789 473.384 401.789C449.847 401.789 430.768 390.302 430.768 376.132C430.768 361.961 449.847 350.474 473.384 350.474C496.92 350.474 516 361.961 516 376.132Z" fill="#F7E8D2"/>
<path d="M515.828 372.549C514.559 388.413 489.405 399.342 459.644 396.961C429.883 394.58 406.785 379.789 408.053 363.925C409.322 348.061 434.476 337.131 464.237 339.513C493.998 341.894 517.096 356.685 515.828 372.549Z" fill="#F7E8D2"/>
</g>
<defs>
<clipPath id="clip0_99_146">
<rect width="400" height="1600" fill="white"/>
</clipPath>
</defs>
</svg>

<svg xmlns="http://www.w3.org/2000/svg" width="400" height="1600" fill="none"><g clip-path="url(#a)"><path fill="#F7E8D2" d="M30.3 731.7c0 29.4-31.7 53.3-70.7 53.3s-70.6-23.9-70.6-53.3 31.6-53.3 70.6-53.3c39 0 70.7 23.9 70.7 53.3Z"/><path fill="#F7E8D2" d="M57.9 691c0 22.7-20.9 41.1-46.6 41.1-25.7 0-46.5-18.4-46.5-41 0-22.7 20.8-41.1 46.5-41.1S58 668.4 58 691Z"/><path fill="#F7E8D2" d="M110.8 753.4c0 17.5-23.7 31.6-53 31.6C28.8 785 5 770.9 5 753.4 5 736 28.7 721.8 58 721.8s52.9 14.2 52.9 31.6Z"/><path fill="#F7E8D2" d="M119.4 716c0 20.6-18 37.4-40.2 37.4-22.2 0-40.3-16.8-40.3-37.5s18-37.5 40.3-37.5c22.2 0 40.2 16.8 40.2 37.5Z"/><path fill="#F7E8D2" d="M181 745.1c0 14.2-19 25.7-42.6 25.7S95.8 759.3 95.8 745c0-14.1 19-25.6 42.6-25.6 23.5 0 42.6 11.5 42.6 25.6Z"/><path fill="#F7E8D2" d="M180.8 741.5c-1.2 16-26.4 26.8-56.2 24.5-29.7-2.4-52.8-17.2-51.5-33 1.2-16 26.4-26.9 56.1-24.5 29.8 2.4 52.9 17.2 51.6 33Z"/><path fill="#E7E7E7" d="M341.7 1035.7c0 29.4-31.7 53.3-70.8 53.3-39.2 0-70.9-23.9-70.9-53.3s31.7-53.3 70.9-53.3c39.1 0 70.8 23.9 70.8 53.3Z"/><path fill="#E7E7E7" d="M369.5 995c0 22.7-21 41.1-46.8 41.1-25.8 0-46.7-18.4-46.7-41 0-22.7 21-41.1 46.7-41.1 25.8 0 46.8 18.4 46.8 41Z"/><path fill="#E7E7E7" d="M422.5 1057.4c0 17.5-23.7 31.6-53 31.6s-53-14.1-53-31.6c0-17.4 23.7-31.6 53-31.6s53 14.2 53 31.6Z"/><path fill="#E7E7E7" d="M431.2 1020c0 20.6-18 37.4-40.4 37.4-22.3 0-40.3-16.8-40.3-37.5s18-37.5 40.3-37.5c22.4 0 40.4 16.8 40.4 37.5Z"/><path fill="#E7E7E7" d="M493 1049.1c0 14.2-19.1 25.7-42.8 25.7-23.6 0-42.7-11.5-42.7-25.7 0-14.1 19.1-25.6 42.7-25.6 23.7 0 42.8 11.5 42.8 25.6Z"/><path fill="#E7E7E7" d="M492.8 1045.5c-1.2 16-26.5 26.8-56.3 24.5-30-2.4-53-17.2-51.8-33 1.3-16 26.5-26.9 56.4-24.5 29.8 2.4 53 17.2 51.7 33Z"/><path fill="#F7E8D2" d="M85.3 1519.9c0 15.5-22.1 28-49.4 28-27.3 0-49.4-12.5-49.4-28s22.1-28 49.4-28c27.3 0 49.4 12.5 49.4 28ZM302.7 1548c0 14.3-16.8 26-37.5 26-20.8 0-37.6-11.7-37.6-26 0-14.5 16.8-26.1 37.6-26.1 20.7 0 37.5 11.6 37.5 26Z"/><path fill="#F7E8D2" d="M332 1529c0 10.5-13.3 19-29.6 19-16.4 0-29.7-8.5-29.7-19s13.3-19 29.7-19c16.3 0 29.6 8.5 29.6 19ZM26 1499c0 26.6-26.2 48.2-58.5 48.2S-91 1525.6-91 1499s26.2-48.2 58.5-48.2S26 1472.4 26 1499Z"/><path fill="#F7E8D2" d="M65.5 1474.9c0 22-20.7 39.9-46.2 39.9-25.5 0-46.3-17.9-46.3-40 0-22 20.8-39.8 46.3-39.8 25.5 0 46.2 17.9 46.2 39.9Z"/><path fill="#F7E8D2" d="M123.3 1487.5c0 15-19.7 27.3-44 27.3-24.1 0-43.8-12.2-43.8-27.3 0-15 19.7-27.2 43.9-27.2s43.9 12.2 43.9 27.2Z"/><path fill="#F7E8D2" d="M157.3 1514c0 14-20.2 25.3-45.1 25.3-24.9 0-45-11.4-45-25.3 0-14 20.1-25.3 45-25.3s45 11.3 45 25.3ZM365.3 362.7c0 29.4-31.7 53.3-70.7 53.3S224 392.1 224 362.7s31.6-53.3 70.6-53.3c39 0 70.7 23.9 70.7 53.3Z"/><path fill="#F7E8D2" d="M392.9 322c0 22.7-20.9 41.1-46.6 41.1-25.7 0-46.5-18.4-46.5-41 0-22.7 20.8-41.1 46.5-41.1s46.6 18.4 46.6 41Z"/><path fill="#F7E8D2" d="M445.8 384.4c0 17.5-23.7 31.6-53 31.6-29.1 0-52.8-14.1-52.8-31.6 0-17.4 23.7-31.6 52.9-31.6s52.9 14.2 52.9 31.6Z"/><path fill="#F7E8D2" d="M454.4 347c0 20.6-18 37.4-40.2 37.4-22.2 0-40.3-16.8-40.3-37.5s18-37.5 40.3-37.5c22.2 0 40.2 16.8 40.2 37.5Z"/><path fill="#F7E8D2" d="M516 376.1c0 14.2-19 25.7-42.6 25.7s-42.6-11.5-42.6-25.7c0-14.1 19-25.6 42.6-25.6 23.5 0 42.6 11.5 42.6 25.6Z"/><path fill="#F7E8D2" d="M515.8 372.5c-1.2 16-26.4 26.8-56.2 24.5-29.7-2.4-52.8-17.2-51.5-33 1.2-16 26.4-26.9 56.1-24.5 29.8 2.4 52.9 17.2 51.6 33Z"/></g><defs><clipPath id="a"><path fill="#fff" d="M0 0h400v1600H0z"/></clipPath></defs></svg>
